secret-hitler-online-interface/src/assets/player-portraits/player-portrait-1.svg

<?xml version="1.0" encoding="UTF-8" standalone="no"?>
<svg
   inkscape:version="1.1 (c68e22c387, 2021-05-23)"
   id="svg8"
   version="1.1"
   viewBox="0 0 37.041668 37.04211"
   height="1.4583508in"
   width="1.4583334in"
   sodipodi:docname="player-portrait-1.svg"
   inkscape:export-filename="C:\Users\gabyb\OneDrive - UW\Documents\DIY Files\Secret Hitler SVG\export\player-portrait-1.png"
   inkscape:export-xdpi="300"
   inkscape:export-ydpi="300"
   xmlns:inkscape="http://www.inkscape.org/namespaces/inkscape"
   xmlns:sodipodi="http://sodipodi.sourceforge.net/DTD/sodipodi-0.dtd"
   xmlns:xlink="http://www.w3.org/1999/xlink"
   xmlns="http://www.w3.org/2000/svg"
   xmlns:svg="http://www.w3.org/2000/svg"
   xmlns:rdf="http://www.w3.org/1999/02/22-rdf-syntax-ns#"
   xmlns:cc="http://creativecommons.org/ns#"
   xmlns:dc="http://purl.org/dc/elements/1.1/">
  <defs
     id="defs2">
    <linearGradient
       inkscape:collect="always"
       xlink:href="#7"
       id="linearGradient1082"
       gradientUnits="userSpaceOnUse"
       gradientTransform="translate(19.803723,62.668275)"
       x1="54.811352"
       y1="32.815384"
       x2="91.85302"
       y2="32.815384" />
    <linearGradient
       id="7"
       gradientTransform="matrix(0,0,0,0,-192.31873,38.641632)">
      <stop
         style="stop-color:#b3a995;stop-opacity:1;"
         offset="0"
         id="stop2624" />
    </linearGradient>
    <linearGradient
       id="6"
       gradientTransform="matrix(2.9598334,0,0,4.6482784,-971.19374,-788.49204)">
      <stop
         style="stop-color:#a19a86;stop-opacity:1;"
         offset="0"
         id="stop2980" />
    </linearGradient>
    <linearGradient
       id="8"
       gradientTransform="matrix(0,0,0,0,20.9488,-188.21513)">
      <stop
         style="stop-color:#c9c2b5;stop-opacity:1;"
         offset="0"
         id="stop2972" />
    </linearGradient>
    <linearGradient
       id="9"
       gradientTransform="matrix(0,0,0,0,-264.5452,-57.817744)">
      <stop
         style="stop-color:#d3cdc3;stop-opacity:1;"
         offset="0"
         id="stop2966" />
    </linearGradient>
    <linearGradient
       inkscape:collect="always"
       xlink:href="#6"
       id="linearGradient1598"
       gradientTransform="matrix(3.5432529,0,0,4.0315578,-21.734113,-19.992884)"
       x1="18.131411"
       y1="10.910906"
       x2="33.648216"
       y2="10.910906"
       gradientUnits="userSpaceOnUse" />
    <linearGradient
       inkscape:collect="always"
       xlink:href="#8"
       id="linearGradient1600"
       gradientTransform="matrix(1.4464229,0,0,0.69136073,68.864594,71.673036)"
       x1="14.425454"
       y1="40.326286"
       x2="19.058685"
       y2="40.326286"
       gradientUnits="userSpaceOnUse" />
    <linearGradient
       inkscape:collect="always"
       xlink:href="#6"
       id="linearGradient1602"
       gradientTransform="matrix(0.86472929,0,0,1.1564313,68.864594,71.673036)"
       x1="24.940538"
       y1="20.817179"
       x2="31.195669"
       y2="20.817179"
       gradientUnits="userSpaceOnUse" />
    <linearGradient
       inkscape:collect="always"
       xlink:href="#8"
       id="linearGradient1604"
       gradientTransform="matrix(1.2408453,0,0,0.80590227,99.375114,1.9858675)"
       x1="27.777958"
       y1="6.1547742"
       x2="31.679495"
       y2="6.1547742"
       gradientUnits="userSpaceOnUse" />
    <linearGradient
       inkscape:collect="always"
       xlink:href="#8"
       id="linearGradient1606"
       gradientTransform="matrix(1.2362482,0,0,0.80889906,1.9858684,99.375111)"
       x1="0.1827004"
       y1="48.474998"
       x2="4.0697818"
       y2="48.474998"
       gradientUnits="userSpaceOnUse" />
  </defs>
  <sodipodi:namedview
     units="in"
     inkscape:snap-bbox="true"
     inkscape:showpageshadow="false"
     showgrid="false"
     inkscape:document-rotation="0"
     inkscape:current-layer="layer1"
     inkscape:document-units="mm"
     inkscape:cy="34.202627"
     inkscape:cx="72.934792"
     inkscape:zoom="5.4089412"
     inkscape:pageshadow="2"
     inkscape:pageopacity="0"
     borderopacity="1"
     bordercolor="#b7b7b7"
     pagecolor="#404040"
     id="base"
     inkscape:pagecheckerboard="0" />
  <metadata
     id="metadata5">
    <rdf:RDF>
      <cc:Work
         rdf:about="">
        <dc:format>image/svg+xml</dc:format>
        <dc:type
           rdf:resource="http://purl.org/dc/dcmitype/StillImage" />
        <dc:title />
      </cc:Work>
    </rdf:RDF>
  </metadata>
  <g
     inkscape:label="Background"
     id="layer2"
     inkscape:groupmode="layer"
     style="display:none"
     transform="translate(-74.615078,-76.96282)">
    <rect
       y="0"
       x="0"
       height="279.40002"
       width="215.90001"
       id="rect848"
       style="opacity:1;vector-effect:none;fill:#fcfcfc;fill-opacity:1;stroke:none;stroke-width:1.62428;stroke-linecap:butt;stroke-linejoin:miter;stroke-miterlimit:4;stroke-dasharray:none;stroke-dashoffset:0;stroke-opacity:1;paint-order:markers fill stroke" />
  </g>
  <g
     id="layer1"
     inkscape:groupmode="layer"
     inkscape:label="Layer 1"
     transform="translate(-74.615078,-76.96282)">
    <rect
       ry="2.0045214"
       y="76.962822"
       x="74.615082"
       height="37.041668"
       width="37.041668"
       id="rect1062"
       style="vector-effect:none;fill:url(#linearGradient1082);fill-opacity:1;stroke:none;stroke-width:0.862;stroke-linecap:round;stroke-linejoin:bevel;stroke-miterlimit:4;stroke-dasharray:none;stroke-dashoffset:0;stroke-opacity:1;paint-order:normal" />
    <path
       id="rect1121"
       style="font-variation-settings:normal;vector-effect:none;fill:#615b4c;fill-opacity:1;stroke:none;stroke-width:4.4582;stroke-linecap:butt;stroke-linejoin:miter;stroke-miterlimit:4;stroke-dasharray:none;stroke-dashoffset:0;stroke-opacity:0.019685;paint-order:markers fill stroke;stop-color:#000000"
       d="m 93.121137,81.309251 c -4.744283,-8.7e-5 -8.590301,3.443121 -8.590173,7.690487 -0.158765,2.738676 1.236772,5.162775 3.780131,5.232239 h 9.619569 c 3.565616,-0.748837 3.714156,-2.43241 3.780126,-5.232239 1.3e-4,-4.247186 -3.845571,-7.69032 -8.589653,-7.690487 z"
       sodipodi:nodetypes="cccccc" />
    <path
       style="fill:#615b4c;fill-opacity:1;stroke-width:10.4538;stroke-opacity:0.019685;paint-order:markers fill stroke;stop-color:#000000"
       id="path958"
       sodipodi:type="arc"
       sodipodi:cx="92.349503"
       sodipodi:cy="88.322517"
       sodipodi:rx="7.7894635"
       sodipodi:ry="8.5657768"
       sodipodi:start="1.2975401"
       sodipodi:end="4.73119"
       sodipodi:arc-type="slice"
       d="m 94.451632,96.57048 a 7.7894635,8.5657768 0 0 1 -8.062335,-2.732997 7.7894635,8.5657768 0 0 1 -1.070488,-9.202538 7.7894635,8.5657768 0 0 1 7.177135,-4.876691 l -0.146441,8.564263 z" />
    <path
       id="rect1064"
       style="font-variation-settings:normal;vector-effect:none;fill:url(#linearGradient1598);fill-opacity:1;stroke:none;stroke-width:3.56689;stroke-linecap:round;stroke-linejoin:bevel;stroke-miterlimit:4;stroke-dasharray:none;stroke-dashoffset:0;stroke-opacity:1;paint-order:normal;stop-color:#000000"
       d="M 46.068359 37.912109 C 43.802639 41.912058 42.509766 46.541081 42.509766 51.484375 L 42.509766 59.0625 C 42.509766 74.291951 54.770549 86.552734 70 86.552734 C 85.229451 86.552734 97.490234 74.291951 97.490234 59.0625 L 97.490234 51.484375 C 97.490234 50.71718 97.457524 49.95797 97.396484 49.207031 A 48.897366 23.356004 0 0 1 88.425781 49.605469 A 48.897366 23.356004 0 0 1 46.068359 37.912109 z "
       transform="matrix(0.26458333,0,0,0.26458333,74.615078,76.96282)" />
    <rect
       style="fill:url(#linearGradient1600);stroke-width:5.33388;stroke-opacity:0.019685;paint-order:markers fill stroke;stop-color:#000000"
       id="rect969"
       width="6.7016125"
       height="3.2032344"
       x="89.729904"
       y="99.553047" />
    <path
       id="path1066"
       style="font-variation-settings:normal;vector-effect:none;fill:#d3cdc3;fill-opacity:1;stroke:none;stroke-width:0.94374;stroke-linecap:round;stroke-linejoin:bevel;stroke-miterlimit:4;stroke-dasharray:none;stroke-dashoffset:0;stroke-opacity:1;paint-order:normal;stop-color:#000000"
       d="m 93.163816,100.41636 a 12.143461,12.143461 0 0 0 -6.09989,1.62677 12.143461,12.143461 0 0 0 -6.07146,10.51667 v 1.44487 h 24.286894 v -1.44487 a 12.143461,12.143461 0 0 0 -6.071474,-10.51667 12.143461,12.143461 0 0 0 -6.04407,-1.62677 z" />
    <path
       id="rect1134"
       style="fill:#968c77;fill-opacity:1;stroke-width:0.886082;stroke-linecap:round;stroke-linejoin:bevel;stop-color:#000000"
       d="m 93.127503,104.40655 c -0.653384,0 -1.139713,0.59809 -1.179418,1.3379 l -0.442794,8.26048 h 3.244878 l -0.443249,-8.26048 c -0.0397,-0.73981 -0.526034,-1.3379 -1.179417,-1.3379 z" />
    <rect
       style="font-variation-settings:normal;vector-effect:none;fill:url(#linearGradient1602);fill-opacity:1;stroke:none;stroke-width:0.910854;stroke-linecap:round;stroke-linejoin:bevel;stroke-miterlimit:4;stroke-dasharray:none;stroke-dashoffset:0;stroke-opacity:1;paint-order:normal;stop-color:#000000"
       id="rect1068"
       width="5.4089947"
       height="7.2336287"
       x="90.431412"
       y="95.746674"
       ry="2.5192983" />
    <rect
       style="fill:#968c77;fill-opacity:1;stroke-width:1.08006;stroke-linecap:round;stroke-linejoin:bevel;stop-color:#000000"
       id="rect1136"
       width="4.1420221"
       height="3.3574853"
       x="91.056717"
       y="102.98651"
       ry="1.6787426" />
    <g
       id="g1149"
       transform="translate(62.409317,21.938199)">
      <ellipse
         style="font-variation-settings:normal;vector-effect:none;fill:#d3cdc3;fill-opacity:1;stroke:none;stroke-width:1.02701;stroke-linecap:round;stroke-linejoin:bevel;stroke-miterlimit:4;stroke-dasharray:none;stroke-dashoffset:0;stroke-opacity:1;paint-order:normal;stop-color:#000000"
         id="ellipse1070"
         cx="27.192003"
         cy="70.199097"
         rx="2.0397928"
         ry="1.4861346" />
      <ellipse
         style="font-variation-settings:normal;vector-effect:none;fill:#413e35;fill-opacity:1;stroke:none;stroke-width:1.17629;stroke-linecap:round;stroke-linejoin:bevel;stroke-miterlimit:4;stroke-dasharray:none;stroke-dashoffset:0;stroke-opacity:1;paint-order:normal;stop-color:#000000"
         id="ellipse1072"
         cx="27.192003"
         cy="70.199097"
         rx="0.88499999"
         ry="1.2625998" />
    </g>
    <g
       id="g1155"
       transform="translate(69.474122,21.938199)">
      <ellipse
         style="font-variation-settings:normal;vector-effect:none;fill:#d3cdc3;fill-opacity:1;stroke:none;stroke-width:1.02701;stroke-linecap:round;stroke-linejoin:bevel;stroke-miterlimit:4;stroke-dasharray:none;stroke-dashoffset:0;stroke-opacity:1;paint-order:normal;stop-color:#000000"
         id="ellipse1151"
         cx="27.192003"
         cy="70.199097"
         rx="2.0397928"
         ry="1.4861346" />
      <ellipse
         style="font-variation-settings:normal;vector-effect:none;fill:#413e35;fill-opacity:1;stroke:none;stroke-width:1.17629;stroke-linecap:round;stroke-linejoin:bevel;stroke-miterlimit:4;stroke-dasharray:none;stroke-dashoffset:0;stroke-opacity:1;paint-order:normal;stop-color:#000000"
         id="ellipse1153"
         cx="27.192003"
         cy="70.199097"
         rx="0.88499999"
         ry="1.2625998" />
    </g>
    <rect
       style="fill:url(#linearGradient1604);stroke-width:5.324;stroke-opacity:0.019685;paint-order:markers fill stroke;stop-color:#000000"
       id="rect965"
       width="4.8412023"
       height="3.1442566"
       x="133.84326"
       y="6.9460139"
       transform="rotate(45)" />
    <rect
       style="fill:url(#linearGradient1606);stroke-width:5.324;stroke-opacity:0.019685;paint-order:markers fill stroke;stop-color:#000000"
       id="rect967"
       width="4.8053975"
       height="3.1442566"
       x="2.2117314"
       y="138.58649"
       transform="matrix(-0.70710678,0.70710678,0.70710678,0.70710678,0,0)" />
  </g>
  <inkscape:templateinfo>
    <inkscape:name>Dark Background</inkscape:name>
    <inkscape:shortdesc>8.5x11</inkscape:shortdesc>
    <inkscape:date>2020-07-09</inkscape:date>
  </inkscape:templateinfo>
</svg>

<?xml version="1.0" encoding="UTF-8"?>
<svg width="1.4583in" height="1.4584in" version="1.1" viewBox="0 0 37.042 37.042" xmlns="http://www.w3.org/2000/svg" xmlns:xlink="http://www.w3.org/1999/xlink">
 <defs>
  <linearGradient id="linearGradient1082" x1="54.811" x2="91.853" y1="32.815" y2="32.815" gradientTransform="translate(19.804 62.668)" gradientUnits="userSpaceOnUse">
   <stop stop-color="#b3a995" offset="0"/>
  </linearGradient>
  <linearGradient id="6" gradientTransform="matrix(2.9598 0 0 4.6483 -971.19 -788.49)">
   <stop stop-color="#a19a86" offset="0"/>
  </linearGradient>
  <linearGradient id="8" gradientTransform="matrix(0 0 0 0 20.949 -188.22)">
   <stop stop-color="#c9c2b5" offset="0"/>
  </linearGradient>
  <linearGradient id="linearGradient1598" x1="18.131" x2="33.648" y1="10.911" y2="10.911" gradientTransform="matrix(3.5433 0 0 4.0316 -21.734 -19.993)" gradientUnits="userSpaceOnUse" xlink:href="#6"/>
  <linearGradient id="linearGradient1600" x1="14.425" x2="19.059" y1="40.326" y2="40.326" gradientTransform="matrix(1.4464 0 0 .69136 68.865 71.673)" gradientUnits="userSpaceOnUse" xlink:href="#8"/>
  <linearGradient id="linearGradient1602" x1="24.941" x2="31.196" y1="20.817" y2="20.817" gradientTransform="matrix(.86473 0 0 1.1564 68.865 71.673)" gradientUnits="userSpaceOnUse" xlink:href="#6"/>
  <linearGradient id="linearGradient1604" x1="27.778" x2="31.679" y1="6.1548" y2="6.1548" gradientTransform="matrix(1.2408 0 0 .8059 99.375 1.9859)" gradientUnits="userSpaceOnUse" xlink:href="#8"/>
  <linearGradient id="linearGradient1606" x1=".1827" x2="4.0698" y1="48.475" y2="48.475" gradientTransform="matrix(1.2362 0 0 .8089 1.9859 99.375)" gradientUnits="userSpaceOnUse" xlink:href="#8"/>
 </defs>
 <g transform="translate(-74.615 -76.963)" display="none">
  <rect width="215.9" height="279.4" fill="#fcfcfc" style="paint-order:markers fill stroke"/>
 </g>
 <g transform="translate(-74.615 -76.963)">
  <g>
   <rect x="74.615" y="76.963" width="37.042" height="37.042" ry="2.0045" fill="url(#linearGradient1082)" style="paint-order:normal"/>
   <path d="m93.121 81.309c-4.7443-8.7e-5 -8.5903 3.4431-8.5902 7.6905-0.15876 2.7387 1.2368 5.1628 3.7801 5.2322h9.6196c3.5656-0.74884 3.7142-2.4324 3.7801-5.2322 1.3e-4 -4.2472-3.8456-7.6903-8.5897-7.6905z" fill="#615b4c" stop-color="#000000" style="font-variation-settings:normal;paint-order:markers fill stroke"/>
   <path d="m94.452 96.57a7.7895 8.5658 0 0 1-8.0623-2.733 7.7895 8.5658 0 0 1-1.0705-9.2025 7.7895 8.5658 0 0 1 7.1771-4.8767l-0.14644 8.5643z" fill="#615b4c" stop-color="#000000" stroke-opacity=".019685" stroke-width="10.454" style="paint-order:markers fill stroke"/>
   <path transform="matrix(.26458 0 0 .26458 74.615 76.963)" d="m46.068 37.912c-2.2657 3.9999-3.5586 8.629-3.5586 13.572v7.5781c0 15.229 12.261 27.49 27.49 27.49s27.49-12.261 27.49-27.49v-7.5781c0-0.7672-0.03271-1.5264-0.09375-2.2773a48.897 23.356 0 0 1-8.9707 0.39844 48.897 23.356 0 0 1-42.357-11.693z" fill="url(#linearGradient1598)" stop-color="#000000" style="font-variation-settings:normal;paint-order:normal"/>
  </g>
  <rect x="89.73" y="99.553" width="6.7016" height="3.2032" fill="url(#linearGradient1600)" stop-color="#000000" stroke-opacity=".019685" stroke-width="5.3339" style="paint-order:markers fill stroke"/>
  <g>
   <path d="m93.164 100.42a12.143 12.143 0 0 0-6.0999 1.6268 12.143 12.143 0 0 0-6.0715 10.517v1.4449h24.287v-1.4449a12.143 12.143 0 0 0-6.0715-10.517 12.143 12.143 0 0 0-6.0441-1.6268z" fill="#d3cdc3" stop-color="#000000" style="font-variation-settings:normal;paint-order:normal"/>
   <path d="m93.128 104.41c-0.65338 0-1.1397 0.59809-1.1794 1.3379l-0.44279 8.2605h3.2449l-0.44325-8.2605c-0.0397-0.73981-0.52603-1.3379-1.1794-1.3379z" fill="#968c77" stop-color="#000000" stroke-linecap="round" stroke-linejoin="bevel" stroke-width=".88608"/>
   <rect x="90.431" y="95.747" width="5.409" height="7.2336" ry="2.5193" fill="url(#linearGradient1602)" stop-color="#000000" style="font-variation-settings:normal;paint-order:normal"/>
   <rect x="91.057" y="102.99" width="4.142" height="3.3575" ry="1.6787" fill="#968c77" stop-color="#000000" stroke-linecap="round" stroke-linejoin="bevel" stroke-width="1.0801"/>
  </g>
  <g transform="translate(62.409 21.938)">
   <ellipse cx="27.192" cy="70.199" rx="2.0398" ry="1.4861" fill="#d3cdc3" stop-color="#000000" style="font-variation-settings:normal;paint-order:normal"/>
   <ellipse cx="27.192" cy="70.199" rx=".885" ry="1.2626" fill="#413e35" stop-color="#000000" style="font-variation-settings:normal;paint-order:normal"/>
  </g>
  <g transform="translate(69.474 21.938)">
   <ellipse cx="27.192" cy="70.199" rx="2.0398" ry="1.4861" fill="#d3cdc3" stop-color="#000000" style="font-variation-settings:normal;paint-order:normal"/>
   <ellipse cx="27.192" cy="70.199" rx=".885" ry="1.2626" fill="#413e35" stop-color="#000000" style="font-variation-settings:normal;paint-order:normal"/>
  </g>
  <rect transform="rotate(45)" x="133.84" y="6.946" width="4.8412" height="3.1443" fill="url(#linearGradient1604)" stop-color="#000000" stroke-opacity=".019685" stroke-width="5.324" style="paint-order:markers fill stroke"/>
  <rect transform="matrix(-.70711 .70711 .70711 .70711 0 0)" x="2.2117" y="138.59" width="4.8054" height="3.1443" fill="url(#linearGradient1606)" stop-color="#000000" stroke-opacity=".019685" stroke-width="5.324" style="paint-order:markers fill stroke"/>
 </g>
</svg>
